assets/icons/microphone-mute-24.svg

<svg width="24" height="24" viewBox="0 0 24 24" fill="none" xmlns="http://www.w3.org/2000/svg">
<path d="M16.812 12.4444C16.812 12.2175 16.5404 12.1009 16.3758 12.2572L11.8404 16.5658C11.673 16.7248 11.7691 17 12 17C14.8411 17 16.812 14.7944 16.812 12.4444Z" fill="#F2F2F2"/>
<path d="M11.0158 17.9334C10.6888 17.8887 10.3535 17.9784 10.1142 18.2057L9.97693 18.3361C9.43287 18.853 9.63801 19.7503 10.3788 19.8704C10.517 19.8928 10.6564 19.9124 10.797 19.9291V21H7.17286L5.27217 22.8056C5.47167 22.9278 5.71817 23 5.98496 23H18.015C18.6794 23 19.218 22.5523 19.218 22C19.218 21.4477 18.6794 21 18.015 21H13.203V19.9291C17.284 19.4439 20.4211 16.5265 20.4211 13V11.5C20.4211 10.9477 19.8825 10.5 19.218 10.5C18.5536 10.5 18.015 10.9477 18.015 11.5V13C18.015 15.7614 15.322 18 12 18C11.6648 18 11.336 17.9772 11.0158 17.9334Z" fill="#F2F2F2"/>
<path fill-rule="evenodd" clip-rule="evenodd" d="M7.18797 5.55556C7.18797 3.20555 9.15894 1 12 1C14.8411 1 16.812 3.20555 16.812 5.55556V6.01436L20.203 2.79289C20.6141 2.40237 21.2806 2.40237 21.6917 2.79289C22.1028 3.18342 22.1028 3.81658 21.6917 4.20711L16.812 8.84278L14.406 11.1285L10.7406 14.6107L9.14855 16.1231L8.29174 16.9371L6.70567 18.4438L3.79695 21.2071C3.38588 21.5976 2.71939 21.5976 2.30831 21.2071C1.89723 20.8166 1.89723 20.1834 2.30831 19.7929L5.15987 17.0839C4.16494 15.9345 3.57895 14.5241 3.57895 13V11.5C3.57895 10.9477 4.11755 10.5 4.78196 10.5C5.44636 10.5 5.98496 10.9477 5.98496 11.5V13C5.98496 13.9196 6.28359 14.7811 6.80463 15.5214L7.76757 14.6066C7.39353 13.9472 7.18797 13.2034 7.18797 12.4444V5.55556ZM9.62207 12.8448L14.406 8.30007V5.55556C14.406 3.9782 13.1454 3 12 3C10.8546 3 9.59399 3.9782 9.59399 5.55556V12.4444C9.59399 12.5826 9.60365 12.7161 9.62207 12.8448Z" fill="#F2F2F2"/>
</svg>

<svg xmlns="http://www.w3.org/2000/svg" width="24" height="24" viewBox="0 0 24 24"><path d="M16.812 12.444a.258.258 0 00-.436-.187l-4.536 4.309c-.167.159-.07.434.16.434 2.841 0 4.812-2.206 4.812-4.556z"/><path d="M11.016 17.933a1.088 1.088 0 00-.902.273l-.137.13c-.544.517-.339 1.414.402 1.534.138.023.277.042.418.06V21H7.173l-1.9 1.806c.199.122.445.194.712.194h12.03c.664 0 1.203-.448 1.203-1s-.539-1-1.203-1h-4.812v-1.07c4.081-.486 7.218-3.404 7.218-6.93v-1.5c0-.552-.538-1-1.203-1-.664 0-1.203.448-1.203 1V13c0 2.761-2.693 5-6.015 5-.335 0-.664-.023-.984-.067z"/><path fill-rule="evenodd" d="M7.188 5.556C7.188 3.206 9.158 1 12 1c2.841 0 4.812 2.206 4.812 4.556v.458l3.391-3.221a1.092 1.092 0 011.489 0 .965.965 0 010 1.414l-4.88 4.636-2.406 2.286-3.665 3.482-1.592 1.512-.857.814-1.586 1.507-2.91 2.763c-.41.39-1.077.39-1.488 0a.965.965 0 010-1.414l2.852-2.71C4.165 15.936 3.579 14.525 3.579 13v-1.5c0-.552.539-1 1.203-1s1.203.448 1.203 1V13c0 .92.299 1.781.82 2.521l.963-.914a4.388 4.388 0 01-.58-2.163V5.556zm2.434 7.289L14.406 8.3V5.556C14.406 3.978 13.146 3 12 3c-1.145 0-2.406.978-2.406 2.556v6.888c0 .139.01.272.028.4z"/></svg>
